X: 30412
M: 2/4
L: 1/16
K: D
f2ed B2d2 | A2F2F2D2 | E3F E2DE | [A2F2]D2D2 :|
|: de |\
f2d2 dcde | f2d2 d2ge | b2e2 efge | b2e2 e2de |\
f2ed B2d2 | A2F2 F2D2 | E3F E2DE | F2D2D2 :|


